X:1370
T: Lodge Gate HP
S: "Roche Collection of Traditional Irish Music" [III/60/171]
L: 1/8
M: 4/4
R: hornpipe
K: D
(3ABc | dcdf ecAc | dcdB AFDF | GFED Dfed | edcB ABcd |
eA (3AAA fA (3AAA | dcde f2 A2 | GFGB AGFE | D2 DE D2 :|
(3ABc | dcdA FAdc | BAFA BGEf | gfge fefd | cded cBAG |
Fd (3ddd ce (3eee | dcde f2 A2 | GFGB AGFE | D2 DE D2 :|
